resources/svg/sort-low-to-high.svg

<svg width="15" height="15" viewBox="0 0 15 15" fill="none" xmlns="http://www.w3.org/2000/svg">
<path fill-rule="evenodd" clip-rule="evenodd" d="M4.14645 0.146447C4.34172 -0.0488155 4.6583 -0.0488155 4.85356 0.146447L7.85356 3.14645L7.14645 3.85355L5.00001 1.70711V15H4.00001V1.70711L1.85356 3.85355L1.14645 3.14645L4.14645 0.146447ZM11 1H10V7.45058e-09H11.5C11.7761 7.45058e-09 12 0.223858 12 0.5V6H13V7H10V6H11V1ZM9.00001 10C9.00001 8.89543 9.89544 8 11 8H11.578C12.8648 8 13.7735 9.26071 13.3666 10.4815L11.9743 14.6581L11.0257 14.3419L11.8063 12H11C9.89544 12 9.00001 11.1046 9.00001 10ZM12.1396 11L12.4179 10.1653C12.609 9.59201 12.1823 9 11.578 9H11C10.4477 9 10 9.44772 10 10C10 10.5523 10.4477 11 11 11H12.1396Z" fill="black"/>
</svg>

<svg viewBox="0 0 15 15" fill="none" xmlns="http://www.w3.org/2000/svg" fill="currentColor"><path fill-rule="evenodd" clip-rule="evenodd" d="M4.146.146a.5.5 0 01.708 0l3 3-.708.708L5 1.707V15H4V1.707L1.854 3.854l-.708-.708 3-3zM11 1h-1V0h1.5a.5.5 0 01.5.5V6h1v1h-3V6h1V1zm-2 9a2 2 0 012-2h.578a1.885 1.885 0 011.789 2.482l-1.393 4.176-.948-.316.78-2.342H11a2 2 0 01-2-2zm3.14 1l.278-.835A.885.885 0 0011.578 9H11a1 1 0 100 2h1.14z" fill="currentColor"/></svg>
